images/linkedin.svg

<?xml version="1.0" encoding="UTF-8" standalone="no"?>
<svg
   height="72"
   viewBox="0 0 72 72"
   width="72"
   version="1.1"
   id="svg2"
   sodipodi:docname="linkedin.svg"
   inkscape:version="1.4 (e7c3feb1, 2024-10-09)"
   xmlns:inkscape="http://www.inkscape.org/namespaces/inkscape"
   xmlns:sodipodi="http://sodipodi.sourceforge.net/DTD/sodipodi-0.dtd"
   xmlns="http://www.w3.org/2000/svg"
   xmlns:svg="http://www.w3.org/2000/svg">
  <defs
     id="defs2" />
  <sodipodi:namedview
     id="namedview2"
     pagecolor="#000000"
     bordercolor="#000000"
     borderopacity="0.25"
     inkscape:showpageshadow="2"
     inkscape:pageopacity="0.0"
     inkscape:pagecheckerboard="0"
     inkscape:deskcolor="#d1d1d1"
     inkscape:zoom="6.8260576"
     inkscape:cx="31.350453"
     inkscape:cy="37.723092"
     inkscape:window-width="1552"
     inkscape:window-height="1186"
     inkscape:window-x="225"
     inkscape:window-y="37"
     inkscape:window-maximized="0"
     inkscape:current-layer="svg2" />
  <g
     fill="none"
     fill-rule="evenodd"
     id="g2">
    <path
       id="path1"
       style="fill:#fdfeff;fill-opacity:1"
       d="M 8 0 C 3.581722 8.116245e-16 0 3.581722 0 8 L 0 64 C 5.41083e-16 68.418278 3.581722 72 8 72 L 64 72 C 68.418278 72 72 68.418278 72 64 L 72 8 C 72 3.581722 68.418278 -1.1842379e-15 64 0 L 8 0 z M 16.349609 10 C 19.856901 10 22.697266 12.863834 22.697266 16.396484 C 22.697266 19.929134 19.856901 22.794922 16.349609 22.794922 C 12.842318 22.794922 10 19.929134 10 16.396484 C 10 12.863834 12.842318 10 16.349609 10 z M 49.382812 26.273438 C 56.735937 26.273438 62 30.76404 62 40.050781 L 62 62 L 51.316406 62 L 51.316406 43.802734 C 51.316406 38.813374 49.419792 36.025391 45.470703 36.025391 C 41.174609 36.025391 38.929687 38.92673 38.929688 43.802734 L 38.929688 62 L 28.632812 62 L 28.632812 27.333984 L 38.929688 27.333984 L 38.929688 32.001953 C 38.929688 32.001953 42.026302 26.273437 49.382812 26.273438 z M 11.033203 27.333984 L 21.769531 27.333984 L 21.769531 62 L 11.033203 62 L 11.033203 27.333984 z " />
  </g>
</svg>

<svg xmlns="http://www.w3.org/2000/svg" width="72" height="72" viewBox="0 0 72 72"><path fill="none" fill-rule="evenodd" d="M8 0a8 8 0 0 0-8 8v56a8 8 0 0 0 8 8h56a8 8 0 0 0 8-8V8a8 8 0 0 0-8-8zm8.35 10c3.507 0 6.347 2.864 6.347 6.396s-2.84 6.399-6.347 6.399S10 19.929 10 16.396 12.842 10 16.35 10m33.033 16.273C56.736 26.273 62 30.764 62 40.051V62H51.316V43.803c0-4.99-1.896-7.778-5.845-7.778-4.296 0-6.541 2.902-6.541 7.778V62H28.633V27.334H38.93v4.668s3.096-5.729 10.453-5.729m-38.35 1.061H21.77V62H11.033z" style="fill:#fdfeff;fill-opacity:1"/></svg>
